X: 42675
T: Whistle The Message
R: jig
M: 6/8
K: Dmajor
|:Bfb a2f|fge fga|b2f gec|dBF G3|
Bfb a2f|fge fga|b2f gfe|1 fdB B3:|2 fdB B2c||
|:d2d fed|c2c ecA|d2dfed|ceea2f|d2d fed|
cec dBA|1 Bfb a2f|fec B2c:|2 Bfb Bfb|aec B3||

